icons/numix/22x22/mimetypes/application-database.svg

<?xml version="1.0" encoding="UTF-8" standalone="no"?>
<svg
   xmlns:dc="http://purl.org/dc/elements/1.1/"
   xmlns:cc="http://creativecommons.org/ns#"
   xmlns:rdf="http://www.w3.org/1999/02/22-rdf-syntax-ns#"
   xmlns:svg="http://www.w3.org/2000/svg"
   xmlns="http://www.w3.org/2000/svg"
   xmlns:sodipodi="http://sodipodi.sourceforge.net/DTD/sodipodi-0.dtd"
   xmlns:inkscape="http://www.inkscape.org/namespaces/inkscape"
   width="22"
   height="22"
   viewBox="0 0 22 22"
   id="svg2"
   version="1.1"
   inkscape:version="0.48.5 r10040"
   sodipodi:docname="application-database.svg">
  <metadata
     id="metadata22">
    <rdf:RDF>
      <cc:Work
         rdf:about="">
        <dc:format>image/svg+xml</dc:format>
        <dc:type
           rdf:resource="http://purl.org/dc/dcmitype/StillImage" />
      </cc:Work>
    </rdf:RDF>
  </metadata>
  <defs
     id="defs20" />
  <sodipodi:namedview
     pagecolor="#ffffff"
     bordercolor="#666666"
     borderopacity="1"
     objecttolerance="10"
     gridtolerance="10"
     guidetolerance="10"
     inkscape:pageopacity="0"
     inkscape:pageshadow="2"
     inkscape:window-width="1280"
     inkscape:window-height="970"
     id="namedview18"
     showgrid="true"
     inkscape:zoom="42.909091"
     inkscape:cx="11.992312"
     inkscape:cy="11.697611"
     inkscape:window-x="0"
     inkscape:window-y="0"
     inkscape:window-maximized="1"
     inkscape:current-layer="svg2">
    <inkscape:grid
       type="xygrid"
       id="grid3010" />
  </sodipodi:namedview>
  <path
     style="fill:#a33639;fill-opacity:1"
     d="m 4,-4e-7 c -0.472657,0 -1,0.527344 -1,0.99999996 L 3,21 c 0,0.445312 0.554687,1 1,1 l 14,0 c 0.445313,0 0.992367,-0.554753 1,-1 l 0,-15.0000004 -6,-6 z"
     id="path4-2"
     inkscape:connector-curvature="0"
     sodipodi:nodetypes="ssssssccs" />
  <path
     style="fill:#000000;fill-opacity:0.19599998"
     d="M 14,5.9999996 19,11 19,5.9999996 z"
     id="path6"
     inkscape:connector-curvature="0"
     sodipodi:nodetypes="cccc" />
  <path
     style="fill:#ffffff;fill-opacity:0.39200003"
     d="m 13,-4e-7 6,6 -5,0 c -0.445312,0 -1,-0.554688 -1,-1 z"
     id="path8"
     inkscape:connector-curvature="0"
     sodipodi:nodetypes="ccssc" />
  <g
     style="fill:#ffffff"
     id="g10"
     transform="matrix(1.0905218,0,0,1.0905218,-0.99573933,-1.0786586)">
    <path
       d="m 11,8.25 c -2.023438,0 -3.667969,0.511719 -3.667969,1.144531 l 0,0.917969 c 0,0.632812 1.644531,1.144531 3.667969,1.144531 2.023438,0 3.667969,-0.511719 3.667969,-1.144531 l 0,-0.917969 C 14.667969,8.761719 13.023438,8.25 11,8.25 z"
       id="path12"
       inkscape:connector-curvature="0" />
    <path
       d="m 10.988281,11.917969 c -1.640625,0 -3.027343,-0.339844 -3.492187,-0.804688 -0.109375,0.109375 -0.164063,0.226563 -0.164063,0.34375 l 0,0.917969 c 0,0.632812 1.644531,1.144531 3.667969,1.144531 2.023438,0 3.667969,-0.511719 3.667969,-1.144531 l 0,-0.917969 c 0,-0.117187 -0.06641,-0.234375 -0.175781,-0.34375 -0.464844,0.464844 -1.863282,0.804688 -3.503907,0.804688 z"
       id="path14"
       inkscape:connector-curvature="0" />
    <path
       d="m 10.988281,13.980469 c -1.640625,0 -3.027343,-0.339844 -3.492187,-0.804688 -0.109375,0.109375 -0.164063,0.226563 -0.164063,0.34375 l 0,0.917969 c 0,0.632812 1.644531,1.144531 3.667969,1.144531 2.023438,0 3.667969,-0.511719 3.667969,-1.144531 l 0,-0.917969 c 0,-0.117187 -0.06641,-0.234375 -0.175781,-0.34375 -0.464844,0.464844 -1.863282,0.804688 -3.503907,0.804688 z"
       id="path16"
       inkscape:connector-curvature="0" />
  </g>
</svg>

<svg width="22" xmlns="http://www.w3.org/2000/svg" height="22" viewBox="0 0 22 22" xmlns:xlink="http://www.w3.org/1999/xlink">
<path style="fill:#a33639" d="M 3.667969 0.457031 C 3.195312 0.457031 2.75 0.902344 2.75 1.375 L 2.75 20.625 C 2.75 21.070312 3.222656 21.542969 3.667969 21.542969 L 18.332031 21.542969 C 18.777344 21.542969 19.25 21.070312 19.25 20.625 L 19.25 6.417969 L 13.292969 0.457031 Z "/>
<path style="fill:#000;fill-opacity:.196" d="M 13.292969 5.5 L 13.320312 5.527344 L 13.390625 5.5 Z M 14.207031 6.417969 L 19.25 11.457031 L 19.25 6.417969 Z "/>
<path style="fill:#fff;fill-opacity:.392" d="M 13.292969 0.457031 L 19.25 6.417969 L 14.207031 6.417969 C 13.761719 6.417969 13.292969 5.945312 13.292969 5.5 Z "/>
<g style="fill:#fff">
<path d="M 11 8.25 C 8.976562 8.25 7.332031 8.761719 7.332031 9.394531 L 7.332031 10.3125 C 7.332031 10.945312 8.976562 11.457031 11 11.457031 C 13.023438 11.457031 14.667969 10.945312 14.667969 10.3125 L 14.667969 9.394531 C 14.667969 8.761719 13.023438 8.25 11 8.25 Z "/>
<path d="M 10.988281 11.917969 C 9.347656 11.917969 7.960938 11.578125 7.496094 11.113281 C 7.386719 11.222656 7.332031 11.339844 7.332031 11.457031 L 7.332031 12.375 C 7.332031 13.007812 8.976562 13.519531 11 13.519531 C 13.023438 13.519531 14.667969 13.007812 14.667969 12.375 L 14.667969 11.457031 C 14.667969 11.339844 14.601562 11.222656 14.492188 11.113281 C 14.027344 11.578125 12.628906 11.917969 10.988281 11.917969 Z "/>
<path d="M 10.988281 13.980469 C 9.347656 13.980469 7.960938 13.640625 7.496094 13.175781 C 7.386719 13.285156 7.332031 13.402344 7.332031 13.519531 L 7.332031 14.4375 C 7.332031 15.070312 8.976562 15.582031 11 15.582031 C 13.023438 15.582031 14.667969 15.070312 14.667969 14.4375 L 14.667969 13.519531 C 14.667969 13.402344 14.601562 13.285156 14.492188 13.175781 C 14.027344 13.640625 12.628906 13.980469 10.988281 13.980469 Z "/>
</g>
</svg>
